Newaita-dark/actions/22/format-text-strikethrough.svg

<?xml version="1.0" encoding="UTF-8"?>
<svg xmlns="http://www.w3.org/2000/svg" xmlns:xlink="http://www.w3.org/1999/xlink" width="22pt" height="22pt" viewBox="0 0 22 22" version="1.1">
<g id="surface1">
<path style=" stroke:none;fill-rule:nonzero;fill:rgb(47.058824%,56.470591%,61.176473%);fill-opacity:1;" d="M 10.914062 2.902344 C 8.886719 2.902344 7.125 3.722656 6.183594 4.945312 L 7.695312 5.890625 C 8.269531 5.191406 9.375 4.71875 10.652344 4.71875 L 11.179688 4.71875 C 13.046875 4.71875 14.554688 5.734375 14.554688 6.992188 L 14.554688 7.902344 L 16.371094 7.902344 L 16.371094 6.992188 C 16.371094 4.726562 13.9375 2.902344 10.914062 2.902344 Z M 5.554688 11.996094 C 5.492188 12.25 5.457031 12.511719 5.457031 12.777344 L 5.457031 13.234375 L 5.492188 13.234375 C 5.789062 15.285156 8.097656 16.871094 10.914062 16.871094 C 12.316406 16.871094 13.589844 16.480469 14.554688 15.832031 L 14.554688 16.773438 L 16.371094 16.773438 L 16.371094 11.996094 L 14.351562 11.996094 C 14.480469 12.238281 14.554688 12.503906 14.554688 12.777344 C 14.554688 14.039062 13.046875 15.050781 11.179688 15.050781 L 10.652344 15.050781 C 8.78125 15.050781 7.277344 14.039062 7.277344 12.777344 C 7.277344 12.503906 7.347656 12.238281 7.480469 11.996094 Z M 5.554688 11.996094 "/>
<path style=" stroke:none;fill-rule:nonzero;fill:rgb(25.882354%,64.705884%,96.078432%);fill-opacity:1;" d="M 3.449219 8.8125 C 3.300781 8.8125 3.183594 8.980469 3.183594 9.191406 L 3.183594 10.707031 C 3.183594 10.917969 3.300781 11.085938 3.449219 11.085938 L 18.835938 11.085938 C 18.984375 11.085938 19.101562 10.917969 19.101562 10.707031 L 19.101562 9.191406 C 19.101562 8.980469 18.984375 8.8125 18.835938 8.8125 Z M 3.449219 8.8125 "/>
</g>
</svg>

<svg xmlns="http://www.w3.org/2000/svg" width="22pt" height="22pt" viewBox="0 0 22 22"><path d="M10.914 2.902c-2.027 0-3.789.82-4.73 2.043l1.511.946c.575-.7 1.68-1.172 2.957-1.172h.528c1.867 0 3.375 1.015 3.375 2.273v.91h1.816v-.91c0-2.265-2.433-4.09-5.457-4.09zm-5.36 9.094a3.267 3.267 0 0 0-.097.781v.457h.035c.297 2.051 2.606 3.637 5.422 3.637 1.402 0 2.676-.39 3.64-1.039v.941h1.817v-4.777h-2.02c.13.242.204.508.204.781 0 1.262-1.508 2.274-3.375 2.274h-.528c-1.87 0-3.375-1.012-3.375-2.274 0-.273.07-.539.203-.78zm0 0" fill="#78909c"/><path d="M3.45 8.813c-.15 0-.266.167-.266.378v1.516c0 .211.117.379.265.379h15.387c.148 0 .266-.168.266-.379V9.191c0-.21-.118-.379-.266-.379zm0 0" fill="#42a5f5"/></svg>
